X: 31
T:Dawns y Pentref
T:The Village Dance
M:2/4
L:1/8
Q:220
S:Cadw Twmpath Collection
R:Polka
A:Wales
Z:brian_martin12345@yahoo.com
K:D
a/g/|fd dA|B2Ad|cd gf|e/d/e/f/ ea/g/|
fd dA|B2Ad|cd f/e/d/c/|d2D:||
e|f2ea|f2ea|g/f/e/d/ cd|e/d/c/B/ Ae|
f2ea|f2ea|g/f/e/d/ f/e/d/c/|d2D:||
